svg/Tango/emotes/face-crying.svg

<?xml version="1.0" encoding="UTF-8" standalone="no"?>
<!-- Created with Inkscape (http://www.inkscape.org/) -->
<svg
   xmlns:dc="http://purl.org/dc/elements/1.1/"
   xmlns:cc="http://creativecommons.org/ns#"
   xmlns:rdf="http://www.w3.org/1999/02/22-rdf-syntax-ns#"
   xmlns:svg="http://www.w3.org/2000/svg"
   xmlns="http://www.w3.org/2000/svg"
   xmlns:xlink="http://www.w3.org/1999/xlink"
   xmlns:sodipodi="http://sodipodi.sourceforge.net/DTD/sodipodi-0.dtd"
   xmlns:inkscape="http://www.inkscape.org/namespaces/inkscape"
   sodipodi:docname="face-crying.svg"
   sodipodi:docbase="/home/tigert/cvs/freedesktop.org/tango-icon-theme/scalable/emotes"
   inkscape:version="0.46"
   sodipodi:version="0.32"
   id="svg4376"
   height="48px"
   width="48px"
   inkscape:output_extension="org.inkscape.output.svg.inkscape">
  <defs
     id="defs3">
    <inkscape:perspective
       sodipodi:type="inkscape:persp3d"
       inkscape:vp_x="0 : 24 : 1"
       inkscape:vp_y="0 : 1000 : 0"
       inkscape:vp_z="48 : 24 : 1"
       inkscape:persp3d-origin="24 : 16 : 1"
       id="perspective44" />
    <linearGradient
       id="linearGradient5125"
       inkscape:collect="always">
      <stop
         id="stop5127"
         offset="0"
         style="stop-color:#729fcf;stop-opacity:1;" />
      <stop
         id="stop5129"
         offset="1"
         style="stop-color:#729fcf;stop-opacity:0;" />
    </linearGradient>
    <linearGradient
       id="linearGradient3290">
      <stop
         style="stop-color:#fffcde;stop-opacity:1.0000000;"
         offset="0.0000000"
         id="stop3292" />
      <stop
         id="stop3294"
         offset="0.64485979"
         style="stop-color:#f6e76a;stop-opacity:1.0000000;" />
      <stop
         style="stop-color:#ffb738;stop-opacity:1.0000000;"
         offset="1.0000000"
         id="stop3296" />
    </linearGradient>
    <linearGradient
       id="linearGradient2729"
       inkscape:collect="always">
      <stop
         id="stop2731"
         offset="0"
         style="stop-color:#d6e0f8;stop-opacity:1;" />
      <stop
         id="stop2733"
         offset="1"
         style="stop-color:#d6e0f8;stop-opacity:0;" />
    </linearGradient>
    <radialGradient
       gradientTransform="matrix(1.250000,0.000000,0.000000,-1.250000,-6.479446,73.66448)"
       id="aigrd2"
       cx="25.0527"
       cy="39.5928"
       r="15.7572"
       fx="25.0527"
       fy="39.5928"
       gradientUnits="userSpaceOnUse">
      <stop
         offset="0.0000000"
         style="stop-color:#777777;stop-opacity:1.0000000;"
         id="stop8602" />
      <stop
         offset="1"
         style="stop-color:#000000"
         id="stop8604" />
    </radialGradient>
    <linearGradient
       id="linearGradient4565"
       inkscape:collect="always">
      <stop
         id="stop4567"
         offset="0"
         style="stop-color:#000000;stop-opacity:1;" />
      <stop
         id="stop4569"
         offset="1"
         style="stop-color:#000000;stop-opacity:0;" />
    </linearGradient>
    <radialGradient
       inkscape:collect="always"
       xlink:href="#linearGradient4565"
       id="radialGradient1375"
       gradientUnits="userSpaceOnUse"
       gradientTransform="matrix(1.000000,0.000000,0.000000,0.333333,0.000000,25.71429)"
       cx="24.714285"
       cy="38.571430"
       fx="24.714285"
       fy="38.571430"
       r="19.714285" />
    <radialGradient
       inkscape:collect="always"
       xlink:href="#linearGradient3290"
       id="radialGradient1377"
       gradientUnits="userSpaceOnUse"
       cx="29.288071"
       cy="15.720984"
       fx="29.158466"
       fy="15.755712"
       r="8.9020796" />
    <radialGradient
       inkscape:collect="always"
       xlink:href="#aigrd2"
       id="radialGradient1379"
       gradientUnits="userSpaceOnUse"
       gradientTransform="matrix(1.250000,0.000000,0.000000,-1.250000,-6.479446,73.66448)"
       cx="25.0527"
       cy="39.5928"
       fx="25.0527"
       fy="39.5928"
       r="15.7572" />
    <linearGradient
       inkscape:collect="always"
       xlink:href="#linearGradient2729"
       id="linearGradient1391"
       gradientUnits="userSpaceOnUse"
       gradientTransform="translate(-6.010408,0.176777)"
       x1="36.592773"
       y1="18.228588"
       x2="35.032169"
       y2="13.809171" />
    <linearGradient
       inkscape:collect="always"
       xlink:href="#linearGradient5125"
       id="linearGradient1394"
       gradientUnits="userSpaceOnUse"
       x1="29.807129"
       y1="13.022821"
       x2="29.807129"
       y2="8.1614628" />
    <radialGradient
       inkscape:collect="always"
       xlink:href="#linearGradient2729"
       id="radialGradient1398"
       gradientUnits="userSpaceOnUse"
       gradientTransform="matrix(1.369875,2.306855e-15,-4.790962e-15,2.845006,-5.054248,-35.24141)"
       cx="13.664760"
       cy="20.541668"
       fx="13.664760"
       fy="20.541668"
       r="4.3085900" />
    <linearGradient
       inkscape:collect="always"
       xlink:href="#linearGradient5125"
       id="linearGradient1401"
       gradientUnits="userSpaceOnUse"
       x1="17.616745"
       y1="14.613358"
       x2="16.829033"
       y2="9.0223665" />
  </defs>
  <sodipodi:namedview
     stroke="#729fcf"
     inkscape:window-y="81"
     inkscape:window-x="188"
     inkscape:window-height="767"
     inkscape:window-width="736"
     inkscape:showpageshadow="false"
     inkscape:document-units="px"
     inkscape:grid-bbox="true"
     showgrid="false"
     inkscape:current-layer="layer1"
     inkscape:cy="27.363514"
     inkscape:cx="25.86575"
     inkscape:zoom="11.313708"
     inkscape:pageshadow="2"
     inkscape:pageopacity="0.0"
     borderopacity="0.19607843"
     bordercolor="#666666"
     pagecolor="#ffffff"
     id="base"
     fill="#729fcf" />
  <metadata
     id="metadata4">
    <rdf:RDF>
      <cc:Work
         rdf:about="">
        <dc:format>image/svg+xml</dc:format>
        <dc:type
           rdf:resource="http://purl.org/dc/dcmitype/StillImage" />
        <dc:title>Face - Crying</dc:title>
        <dc:subject>
          <rdf:Bag>
            <rdf:li>emoticon</rdf:li>
            <rdf:li>emote</rdf:li>
            <rdf:li>smiley</rdf:li>
            <rdf:li>crying</rdf:li>
            <rdf:li>:~(</rdf:li>
          </rdf:Bag>
        </dc:subject>
        <cc:license
           rdf:resource="http://creativecommons.org/licenses/publicdomain/" />
        <dc:creator>
          <cc:Agent>
            <dc:title>Jakub Steiner</dc:title>
          </cc:Agent>
        </dc:creator>
        <dc:source>http://jimmac.musichall.cz</dc:source>
      </cc:Work>
      <cc:License
         rdf:about="http://creativecommons.org/licenses/publicdomain/">
        <cc:permits
           rdf:resource="http://creativecommons.org/ns#Reproduction" />
        <cc:permits
           rdf:resource="http://creativecommons.org/ns#Distribution" />
        <cc:permits
           rdf:resource="http://creativecommons.org/ns#DerivativeWorks" />
      </cc:License>
    </rdf:RDF>
  </metadata>
  <g
     inkscape:groupmode="layer"
     inkscape:label="Layer 1"
     id="layer1">
    <path
       d="M 44.428570 38.571430 A 19.714285 6.5714288 0 1 1  5.0000000,38.571430 A 19.714285 6.5714288 0 1 1  44.428570 38.571430 z"
       sodipodi:ry="6.5714288"
       sodipodi:rx="19.714285"
       sodipodi:cy="38.571430"
       sodipodi:cx="24.714285"
       id="path4563"
       style="opacity:0.53164560;color:#000000;fill:url(#radialGradient1375);fill-opacity:1.0000000;fill-rule:evenodd;stroke:none;stroke-width:0.40487173;stroke-linecap:round;stroke-linejoin:round;marker:none;marker-start:none;marker-mid:none;marker-end:none;stroke-miterlimit:4.0000000;stroke-dasharray:none;stroke-dashoffset:0.0000000;stroke-opacity:1.0000000;visibility:visible;display:inline;overflow:visible"
       sodipodi:type="arc" />
    <path
       sodipodi:type="arc"
       style="opacity:1.0000000;color:#000000;fill:url(#radialGradient1377);fill-opacity:1.0000000;fill-rule:evenodd;stroke:#9c8c0a;stroke-width:0.48004404;stroke-linecap:round;stroke-linejoin:round;marker:none;marker-start:none;marker-mid:none;marker-end:none;stroke-miterlimit:4.0000000;stroke-dasharray:none;stroke-dashoffset:0.0000000;stroke-opacity:1.0000000;visibility:visible;display:inline;overflow:visible"
       id="path4320"
       sodipodi:cx="31.112698"
       sodipodi:cy="19.008621"
       sodipodi:rx="8.6620579"
       sodipodi:ry="8.6620579"
       d="M 39.774755 19.008621 A 8.6620579 8.6620579 0 1 1  22.450640,19.008621 A 8.6620579 8.6620579 0 1 1  39.774755 19.008621 z"
       transform="matrix(2.083142,0.000000,0.000000,2.083142,-40.59375,-16.52317)" />
    <path
       transform="matrix(1.979782,0.000000,0.000000,1.979782,-37.33128,-14.52746)"
       sodipodi:type="arc"
       style="opacity:0.67721522;color:#000000;fill:none;fill-opacity:1.0000000;fill-rule:evenodd;stroke:#ffffff;stroke-width:0.50510627;stroke-linecap:round;stroke-linejoin:round;marker:none;marker-start:none;marker-mid:none;marker-end:none;stroke-miterlimit:4.0000000;stroke-dasharray:none;stroke-dashoffset:0.0000000;stroke-opacity:1.0000000;visibility:visible;display:inline;overflow:visible"
       id="path4322"
       sodipodi:cx="31.112698"
       sodipodi:cy="19.008621"
       sodipodi:rx="8.6620579"
       sodipodi:ry="8.6620579"
       d="M 39.774755 19.008621 A 8.6620579 8.6620579 0 1 1  22.450640,19.008621 A 8.6620579 8.6620579 0 1 1  39.774755 19.008621 z" />
    <g
       transform="matrix(0.663775,0.000000,0.000000,0.663775,8.254630,14.97512)"
       id="g2300">
      <path
         style="opacity:0.35999998;color:#000000;fill:#ffffff;fill-opacity:1.0000000;fill-rule:nonzero;stroke:none;stroke-width:1.0000000;stroke-linecap:butt;stroke-linejoin:miter;marker:none;marker-start:none;marker-mid:none;marker-end:none;stroke-miterlimit:4.0000000;stroke-dasharray:none;stroke-dashoffset:0.0000000;stroke-opacity:1.0000000;visibility:visible;display:inline;overflow:visible"
         d="M 34.014268,32.036842 C 30.290694,27.872830 28.451859,26.405561 24.462492,26.405561 C 20.561313,26.405561 17.962820,28.093607 15.087492,32.390396 C 18.520789,30.041583 20.397124,28.740900 24.197327,28.740900 C 27.909166,28.740900 29.948404,29.791599 34.014268,32.036842 z "
         id="path1387"
         sodipodi:nodetypes="czczc" />
      <path
         sodipodi:nodetypes="czczc"
         id="path8606"
         d="M 34.014268,31.329738 C 30.290694,27.165726 28.451859,25.698457 24.462492,25.698457 C 20.561313,25.698457 17.962820,27.386503 15.087492,31.683292 C 18.520789,29.334479 20.397124,28.033796 24.197327,28.033796 C 27.909166,28.033796 29.948404,29.084495 34.014268,31.329738 z "
         style="fill:url(#radialGradient1379);fill-rule:nonzero;stroke:none;stroke-miterlimit:4.0000000" />
    </g>
    <path
       id="path2296"
       d="M 21.000000,8.8749999 L 14.875000,13.625000 L 15.250000,10.375000 L 21.000000,8.8749999 z "
       style="opacity:0.43670884;color:#000000;fill:#000000;fill-opacity:1.0000000;fill-rule:nonzero;stroke:none;stroke-width:1.0000000;stroke-linecap:butt;stroke-linejoin:miter;marker:none;marker-start:none;marker-mid:none;marker-end:none;stroke-miterlimit:4.0000000;stroke-dasharray:none;stroke-dashoffset:0.0000000;stroke-opacity:1.0000000;visibility:visible;display:inline;overflow:visible" />
    <path
       style="opacity:0.43670884;color:#000000;fill:#000000;fill-opacity:1.0000000;fill-rule:nonzero;stroke:none;stroke-width:1.0000000;stroke-linecap:butt;stroke-linejoin:miter;marker:none;marker-start:none;marker-mid:none;marker-end:none;stroke-miterlimit:4.0000000;stroke-dasharray:none;stroke-dashoffset:0.0000000;stroke-opacity:1.0000000;visibility:visible;display:inline;overflow:visible"
       d="M 26.375000,8.8749999 L 32.500000,13.625000 L 32.125000,10.375000 L 26.375000,8.8749999 z "
       id="path2298" />
    <path
       style="opacity:1.0000000;color:#000000;fill:url(#linearGradient1401);fill-opacity:1.0000000;fill-rule:nonzero;stroke:none;stroke-width:1.0000000;stroke-linecap:butt;stroke-linejoin:miter;marker:none;marker-start:none;marker-mid:none;marker-end:none;stroke-miterlimit:4.0000000;stroke-dasharray:none;stroke-dashoffset:0.0000000;stroke-opacity:1.0000000;visibility:visible;display:inline;overflow:visible"
       d="M 20.806508,9.0223664 C 20.806508,9.0223664 19.555063,13.829673 19.083077,15.591149 C 18.646644,17.219940 17.218913,20.038229 18.008159,23.224582 C 18.997766,27.219831 17.198733,28.599337 15.251807,28.684789 C 13.457005,28.763565 11.351172,27.899994 11.431808,24.721607 C 11.547252,20.259605 16.459844,20.287573 18.212021,15.896009 C 19.872584,11.734062 14.971795,13.412606 14.971795,13.412606 C 14.971795,13.412606 20.806508,9.0223664 20.806508,9.0223664 z "
       id="path2314"
       sodipodi:nodetypes="czszsscc" />
    <path
       sodipodi:nodetypes="cssssscc"
       id="path2310"
       d="M 20.625000,9.1249999 C 20.625000,9.1249999 19.433058,13.630362 18.558058,16.536612 C 17.683058,19.442862 16.396267,20.013161 17.256281,23.358534 C 17.702556,25.094498 16.698856,27.000000 15.125000,27.000000 C 13.492505,27.000000 12.113408,26.032093 12.213388,23.926777 C 12.399719,20.003143 15.911602,20.579760 17.562500,17.031250 C 20.222272,11.301015 15.090386,13.431981 15.090386,13.431981 L 20.625000,9.1249999 z "
       style="opacity:1.0000000;color:#000000;fill:url(#radialGradient1398);fill-opacity:1.0000000;fill-rule:nonzero;stroke:none;stroke-width:1.0000000;stroke-linecap:butt;stroke-linejoin:miter;marker:none;marker-start:none;marker-mid:none;marker-end:none;stroke-miterlimit:4.0000000;stroke-dasharray:none;stroke-dashoffset:0.0000000;stroke-opacity:1.0000000;visibility:visible;display:inline;overflow:visible" />
    <path
       transform="translate(-0.500000,-0.625000)"
       d="M 15.625000 24.437500 A 1.1875000 1.1875000 0 1 1  13.250000,24.437500 A 1.1875000 1.1875000 0 1 1  15.625000 24.437500 z"
       sodipodi:ry="1.1875000"
       sodipodi:rx="1.1875000"
       sodipodi:cy="24.437500"
       sodipodi:cx="14.437500"
       id="path2312"
       style="opacity:1.0000000;color:#000000;fill:#ffffff;fill-opacity:1.0000000;fill-rule:nonzero;stroke:none;stroke-width:1.0000000;stroke-linecap:butt;stroke-linejoin:miter;marker:none;marker-start:none;marker-mid:none;marker-end:none;stroke-miterlimit:4.0000000;stroke-dasharray:none;stroke-dashoffset:0.0000000;stroke-opacity:1.0000000;visibility:visible;display:inline;overflow:visible"
       sodipodi:type="arc" />
    <path
       sodipodi:nodetypes="czsscc"
       id="path2739"
       d="M 26.507547,8.9188131 C 26.507547,8.9188131 28.172228,16.560698 28.565519,18.415939 C 29.046534,20.684992 33.175015,22.173621 33.105853,19.838569 C 33.011593,16.656119 30.190183,16.806635 29.906762,16.096933 C 28.688962,13.047804 32.599050,13.611854 32.599050,13.611854 C 32.599050,13.611854 26.507547,8.9188131 26.507547,8.9188131 z "
       style="opacity:1.0000000;color:#000000;fill:url(#linearGradient1394);fill-opacity:1.0000000;fill-rule:nonzero;stroke:none;stroke-width:1.0000000;stroke-linecap:butt;stroke-linejoin:miter;marker:none;marker-start:none;marker-mid:none;marker-end:none;stroke-miterlimit:4.0000000;stroke-dasharray:none;stroke-dashoffset:0.0000000;stroke-opacity:1.0000000;visibility:visible;display:inline;overflow:visible" />
    <path
       sodipodi:nodetypes="cszsc"
       id="path2743"
       d="M 27.577164,12.114331 C 27.577164,12.114331 28.598544,16.869773 28.991377,17.992156 C 29.300736,18.876040 29.730588,19.647960 31.068504,19.538952 C 32.186786,19.447838 32.015107,17.859026 30.582368,17.064079 C 28.214634,15.750355 27.577164,12.202720 27.577164,12.114331 z "
       style="opacity:1.0000000;color:#000000;fill:url(#linearGradient1391);fill-opacity:1.0000000;fill-rule:nonzero;stroke:none;stroke-width:1.0000000;stroke-linecap:butt;stroke-linejoin:miter;marker:none;marker-start:none;marker-mid:none;marker-end:none;stroke-miterlimit:4.0000000;stroke-dasharray:none;stroke-dashoffset:0.0000000;stroke-opacity:1.0000000;visibility:visible;display:inline;overflow:visible" />
    <path
       sodipodi:type="arc"
       style="opacity:1.0000000;color:#000000;fill:#ffffff;fill-opacity:1.0000000;fill-rule:nonzero;stroke:none;stroke-width:1.0000000;stroke-linecap:butt;stroke-linejoin:miter;marker:none;marker-start:none;marker-mid:none;marker-end:none;stroke-miterlimit:4.0000000;stroke-dasharray:none;stroke-dashoffset:0.0000000;stroke-opacity:1.0000000;visibility:visible;display:inline;overflow:visible"
       id="path2741"
       sodipodi:cx="14.437500"
       sodipodi:cy="24.437500"
       sodipodi:rx="1.1875000"
       sodipodi:ry="1.1875000"
       d="M 15.625000 24.437500 A 1.1875000 1.1875000 0 1 1  13.250000,24.437500 A 1.1875000 1.1875000 0 1 1  15.625000 24.437500 z"
       transform="matrix(0.553405,0.000000,0.000000,0.553405,22.82988,4.234059)" />
  </g>
</svg>

<svg xmlns="http://www.w3.org/2000/svg" xmlns:xlink="http://www.w3.org/1999/xlink" viewBox="0 0 48 48"><defs><linearGradient xlink:href="#1" id="8" gradientUnits="userSpaceOnUse" y1="13.02" x2="0" y2="8.161"/><linearGradient xlink:href="#2" id="7" gradientUnits="userSpaceOnUse" x1="30.582" y1="18.405" x2="29.02" y2="13.986"/><linearGradient xlink:href="#1" id="A" gradientUnits="userSpaceOnUse" x1="17.617" y1="14.613" x2="16.829" y2="9.02"/><linearGradient id="2"><stop stop-color="#d6e0f8"/><stop offset="1" stop-color="#d6e0f8" stop-opacity="0"/></linearGradient><linearGradient id="1"><stop stop-color="#729fcf"/><stop offset="1" stop-color="#729fcf" stop-opacity="0"/></linearGradient><radialGradient xlink:href="#2" id="9" gradientUnits="userSpaceOnUse" gradientTransform="matrix(1.36987 0 0 2.84501-5.05-35.24)" cx="13.665" cy="20.542" r="4.309"/><radialGradient id="4" gradientUnits="userSpaceOnUse" gradientTransform="matrix(1 0 0 .33333 0 25.714)" cx="24.714" cy="38.571" r="19.714"><stop/><stop offset="1" stop-opacity="0"/></radialGradient><radialGradient xlink:href="#3" id="6" gradientUnits="userSpaceOnUse" gradientTransform="matrix(1.25 0 0-1.25-6.479 73.66)" cx="25.05" cy="39.593" r="15.757"/><radialGradient id="5" gradientUnits="userSpaceOnUse" cx="29.29" cy="15.721" fx="29.16" fy="15.756" r="8.902"><stop stop-color="#fffcde"/><stop offset=".645" stop-color="#f6e76a"/><stop offset="1" stop-color="#ffb738"/></radialGradient><radialGradient gradientTransform="matrix(1.25 0 0-1.25-6.479 73.66)" id="3" cx="25.05" cy="39.593" r="15.757" gradientUnits="userSpaceOnUse"><stop stop-color="#777"/><stop offset="1"/></radialGradient></defs><g fill-rule="evenodd" color="#000"><path d="M44.42857 38.57143A19.714285 6.571429 0 1 1 5 38.57143 19.714285 6.571429 0 1 1 44.42857 38.57143" opacity=".532" fill="url(#4)"/><g stroke-linejoin="round" stroke-linecap="round"><path d="M39.774755 19.00862A8.662058 8.662058 0 1 1 22.45064 19.00862 8.662058 8.662058 0 1 1 39.774755 19.00862z" transform="matrix(2.08314 0 0 2.08314-40.594-16.523)" stroke-width=".48" fill="url(#5)" stroke="#9c8c0a"/><path transform="matrix(1.97978 0 0 1.97978-37.33-14.527)" d="M39.774755 19.00862A8.662058 8.662058 0 1 1 22.45064 19.00862 8.662058 8.662058 0 1 1 39.774755 19.00862z" opacity=".677" stroke-width=".505" fill="none" stroke="#fff"/></g></g><g transform="matrix(.66378 0 0 .66378 8.255 14.975)"><path d="m34.01 32.04c-3.724-4.164-5.562-5.631-9.552-5.631-3.901 0-6.5 1.688-9.375 5.985 3.433-2.349 5.31-3.649 9.11-3.649 3.712 0 5.751 1.051 9.817 3.296" opacity=".36" color="#000" fill="#fff"/><path d="m34.01 31.33c-3.724-4.164-5.562-5.631-9.552-5.631-3.901 0-6.5 1.688-9.375 5.985 3.433-2.349 5.31-3.649 9.11-3.649 3.712 0 5.751 1.051 9.817 3.296" fill="url(#6)"/></g><g color="#000"><path d="m21 8.875l-6.125 4.75.375-3.25 5.75-1.5" opacity=".437"/><path d="m26.375 8.875l6.125 4.75-.375-3.25-5.75-1.5" opacity=".437"/><path d="m20.807 9.02c0 0-1.251 4.807-1.723 6.569-.436 1.629-1.864 4.447-1.075 7.633.99 3.995-.809 5.375-2.756 5.46-1.795.079-3.901-.785-3.82-3.963.115-4.462 5.03-4.434 6.78-8.826 1.661-4.162-3.24-2.483-3.24-2.483 0 0 5.835-4.39 5.835-4.39" fill="url(#A)"/><path d="m20.625 9.125c0 0-1.192 4.505-2.067 7.412-.875 2.906-2.162 3.477-1.302 6.822.446 1.736-.557 3.641-2.131 3.641-1.632 0-3.01-.968-2.912-3.073.186-3.924 3.698-3.347 5.349-6.896 2.66-5.73-2.472-3.599-2.472-3.599l5.535-4.307" fill="url(#9)"/></g><path transform="translate(-.5-.625)" d="M15.625 24.4375A1.1875 1.1875 0 1 1 13.25 24.4375 1.1875 1.1875 0 1 1 15.625 24.4375" color="#000" fill="#fff" id="0"/><g color="#000"><path d="m26.508 8.919c0 0 1.665 7.642 2.058 9.497.481 2.269 4.609 3.758 4.54 1.423-.094-3.182-2.916-3.03-3.199-3.742-1.218-3.049 2.692-2.485 2.692-2.485 0 0-6.092-4.693-6.092-4.693" fill="url(#8)"/><path d="m27.577 12.11c0 0 1.021 4.755 1.414 5.878.309.884.739 1.656 2.077 1.547 1.118-.091.947-1.68-.486-2.475-2.368-1.314-3.01-4.861-3.01-4.95" fill="url(#7)"/></g><use transform="matrix(.55341 0 0 .55341 23.11 4.58)" xlink:href="#0"/></svg>
